!!!SOCIAL_FUNCTION:	songs used in the treatment of the sick
!!!PDT:	1929
!!!OTL: No_88_I_Run_Toward_the_East.krn
!!!REG: Southwest
!!!LANG: Non-Tone
!!!LING_GROUP: Uto-Aztecan
**kern
*staff1
*clefF4
*k[f#c#g#d#a#]
*M2/4
8F#\L
8F#\J
=1
8c#\L
8c#\J
4c#\
=2
4c#\
4G#\
=3||
*M3/4
8B\L
8B\J
8G#\L
8F#\J
8F#\L
8F#\J
=4||
*M2/4
2F#\
=5
8F#\L
8F#\J
4F#\
=6
4F#\
4C#/
=7
8F#\L
8F#\J
8F#\
8r
=8!|:
*M3/4
2B\
8B\L
8G#\J
=9
4F#\
4F#\
4C#/
=10
8F#\L
8F#\J
4F#\
4C#/
=11
8G#\L
8F#\J
8F#\L
8F#\J
8F#\L
8F#\J
=12||
*M2/4
2F#\
=13
8F#\L
8F#\J
4F#\
=14
4F#\
4C#/
=15
8F#\L
8F#\J
8F#\
8r
==:|!
*-
